dist/svgs/unicons/line/clipboard.svg

<svg xmlns="http://www.w3.org/2000/svg" viewBox="0 0 24 24"><path d="M17 4h-1.18A3 3 0 0013 2h-2a3 3 0 00-2.82 2H7a3 3 0 00-3 3v12a3 3 0 003 3h10a3 3 0 003-3V7a3 3 0 00-3-3zm-7 1a1 1 0 011-1h2a1 1 0 011 1v1h-4zm8 14a1 1 0 01-1 1H7a1 1 0 01-1-1V7a1 1 0 011-1h1v1a1 1 0 001 1h6a1 1 0 001-1V6h1a1 1 0 011 1z"/></svg>

<svg xmlns="http://www.w3.org/2000/svg" viewBox="0 0 24 24"><path d="M17,4H15.82A3,3,0,0,0,13,2H11A3,3,0,0,0,8.18,4H7A3,3,0,0,0,4,7V19a3,3,0,0,0,3,3H17a3,3,0,0,0,3-3V7A3,3,0,0,0,17,4ZM10,5a1,1,0,0,1,1-1h2a1,1,0,0,1,1,1V6H10Zm8,14a1,1,0,0,1-1,1H7a1,1,0,0,1-1-1V7A1,1,0,0,1,7,6H8V7A1,1,0,0,0,9,8h6a1,1,0,0,0,1-1V6h1a1,1,0,0,1,1,1Z"/></svg>
